X:1
T:Wie habt ihr Jungfrau
T:Horatio Vecchi
T:Source : Canzonette mit 3 Stimmen/ H.Vecchi und G.Capilupi---Nürnberg---P.Kauffman---1606. Editor : André Vierendeels (25/02/17).
T:Notes : Original clefs : G2, C1, F3 Editorial accidentals above the staff Text Middle German by Valentin Hauszmann German Contrafactum of "Non date fede" 1597
T:Wie habt ihr Jungfrau
T:©
T:©
C:Horatio Vecchi
Z:©
%%score [ 1 2 3 ]
L:1/8
Q:1/4=100
M:4/4
K:F
V:1 treble nm="Soprano 1" snm="S 1"
V:2 treble nm="Soprano 2" snm="S 2"
V:3 treble-8 nm="Tenor" snm="T"
V:1
 d6 d2 | d4 c3 B | A2 A2 A2 B2 | c2 cc c2 d2 | _e8 |"^b" d2 f3 efg | f4 f2 B2- | BABc d2 d2 | %8
w: 1. Wie habt|ihr jung- frau|al- so schweif- fend|sin- ne, kein Vo- gel|mag|auch so ge- schwin- de|flie- hen, so|_ ge- schwin- de flie- hen,|
w: 2. Wenn ich|eur Hertz ein|we- nig nur ge-|win- ne, als bald ihr|von|mir fallt zu ei- nem|an- dern, als|_ bald ihr von mir fallt|
 dcde d3 e | fd g4 ^f2 |[M:2/4] g4 ::[M:4/4] z2 d2 B4 | c4 d2 d2 | c3 c c2 B2 | A4 A2 d2 | B4 c4 | %16
w: so _ _ _ _ ge-|schwin- de flie- *|hen,|als eur|ge- müth thut|hin und wi- der|zie- hen, als|eur ge-|
w: zu _ _ _ ei- nem|an- * * *|der,|drumb glaub|ich dasz ihr|müs- set sein ausz|Flan- dern, drumb|glaub ich|
 d4 z2 A2 | c3 c c2 B2 | A4 !fermata!=B4 :| %19
w: müth thut|hin und wi- der|zie- hen.|
w: dasz ihr|müs- et sein ausz|Flan- dern.|
V:2
 B6 B2 | B4 A2 G2 | ^F2 F2 F2 G2 | A2 AA A2 B2 | B2 AG A4 | B4 z2 d2- | dcd_e d4 | d4 BABc | %8
w: 1. Wie habt|ihr jung- frau|al- so schweif- fend|sin- ne, kein Vo- gel|mag _ _ _|auch so|_ ge- schwin- de flie-|hen, so ge- schwin- de|
w: 3. Es gilt|euch gleich, wo|euch der Wind zu|we- het, den nech- sten|ihr- * * *|thut für|_ den lieb- sten hal-|ten, für den lib- sten|
 B6 AG | A8 |[M:2/4] G4 ::[M:4/4] z2 ^F2 G4 | A4 B2 B2 | A3 A A2 G2 |"^-natural" ^F4 F2 F2 | %15
w: flie- * *||hen,|als eur|ge- müth thut|hin und wi- der|zie- hen, als|
w: hal- * *||ten,|ich seh|dasz ihr habt|gar zu vil der|spal- ten, ich|
 G4 A4 | B2 B2 A3 A | A2 G2 ^F2 G2- | G2 ^F2 !fermata!G4 :| %19
w: eur ge-|müth thut hin und|wi- der zie- *|* * hen.|
w: seh dasz|ihr zu vil der|spal- * * *|* * ten.|
V:3
 G6 G2 | B4 c2 c2 | d2 D2 D2 G2 | F2 FF F2 D2 | C8 | B,4 z2 B2- | BABc B4 | B2 G3 FGA | G6 FE | %9
w: 1. Wie habt|ihr jung- frau|al- so schweif- fend|sin- ne, kein Vo- gel|mag|auch so|_ ge- schwin- de flie-|hen, so ge- schwin- de|flie- * *|
w: 4. Weil ihr|auff kei- nem|b'stän- dign We- ge|ge- het, so wer- det|ihr|euch selbst|_ hie- durch ver- füh-|ren, selbst hie- durch ver-|füh- * *|
 D2 C2 D4 |[M:2/4] G4 ::[M:4/4] z2 d2 _e4 | c4 B2 B2 | F3 F F2 G2 | D4 D2 d2 | _e4 c4 | %16
w: |hen,|als eur|ge- müth thut|hin und wi- der|zie- hen, als|eur ge-|
w: |ren,|und al-|le gunst und|lieb bey mir ver-|lie- ren, und|al- le|
 B2 B,2 F3 F | F2 _E2 D4- | D4 !fermata!G4 :| %19
w: müth thut hin und|wi- der zie-|* hen.|
w: gunst und lieb bey|mir ver- lie-|* ren.|

